X: 99
T:Fergie - the true story
M:6/8
L:1/8
C:Andy Cutting
R:Jig
Z:Steve Mansfield
K:G
D | G2G G2G | FGA G2F | EDE EDE | FEF DEF | G2G G2G |
FGA G2F | EDE EDE | FDA G2 :: A | B2B ABc | B3 B2A |
G2G EFG | EFG BAG | B2B ABc | B3 B2A | G2G EFG | FDA G2 :|

